img/svg/logos/1.svg

<svg width="126" height="24" viewBox="0 0 126 24" fill="none" xmlns="http://www.w3.org/2000/svg">
<path d="M90.4833 6.46921H87.5437C86.7101 6.46921 86.1398 6.64527 85.7888 6.97539C85.4378 7.3055 85.2623 7.8997 85.2623 8.69197V18.8595H83.4854V8.55993C83.4854 7.78967 83.617 6.93137 84.0338 6.29315C84.7796 5.10474 86.2275 4.88467 87.2805 4.88467H90.4614C90.4833 4.84065 90.4833 6.46921 90.4833 6.46921Z" fill="#666666"/>
<path d="M79.1863 17.2971C78.3527 17.2971 77.7823 17.121 77.4313 16.7909C77.0803 16.4608 76.9048 15.9106 76.9048 15.0963V6.49136H80.5903V4.90682H76.9048V0.703369H75.1279V15.2064C75.1279 15.9766 75.2596 16.8349 75.6764 17.4731C76.4222 18.6616 77.8701 18.8816 78.9231 18.8816H82.104V17.3191H79.1644V17.2971H79.1863Z" fill="#666666"/>
<path d="M7.49706 3.10813C7.23494 4.52346 6.89573 6.61164 6.71842 8.73076C6.41005 12.4818 6.60278 14.9798 6.60278 14.9798L1.36046 19.9838C1.36046 19.9838 0.95187 17.1763 0.743719 14.0131C0.62037 12.0641 0.581825 10.3317 0.566406 9.28761C0.566406 9.22574 0.597243 9.1716 0.597243 9.10973C0.597243 9.04012 0.682045 8.33633 1.36817 7.6944C2.11597 6.98287 7.57415 2.6905 7.49706 3.10813Z" fill="#7C7C7C"/>
<path d="M7.49706 3.10818C7.23494 4.5235 6.89574 6.61169 6.71842 8.73081C6.71842 8.73081 0.913324 8.03475 0.566406 9.44234C0.566406 9.37273 0.666628 8.51426 1.34505 7.8646C2.10056 7.1376 7.57415 2.69054 7.49706 3.10818Z" fill="#666666"/>
<path d="M0.5743 9.10965V9.43448C0.635974 9.17926 0.728485 8.99364 0.944345 8.73068C1.37607 8.18157 2.0699 8.03462 2.35515 7.99595C3.77366 7.81034 5.87829 7.57832 7.99064 7.51644C11.7374 7.40043 14.2043 7.70979 14.2043 7.70979L19.4466 2.70588C19.4466 2.70588 16.6944 2.17997 13.549 1.80874C11.4984 1.56125 9.68669 1.43751 8.67677 1.37563C8.60738 1.37563 7.88271 1.27509 7.19658 1.93248C6.44878 2.64401 2.69436 6.21713 1.18333 7.66339C0.520334 8.31305 0.5743 9.04778 0.5743 9.10965Z" fill="#959595"/>
<path d="M19.2621 15.5057C17.8436 15.699 15.7467 15.9388 13.6266 16.0007C9.87988 16.1244 7.39749 15.815 7.39749 15.815L2.14746 20.819C2.14746 20.819 4.93052 21.3681 8.06049 21.7238C9.9801 21.9481 11.6916 22.0641 12.7169 22.126C12.7863 22.126 12.9096 22.0641 12.979 22.0641C13.0484 22.0641 13.7731 21.9404 14.4592 21.283C15.2224 20.5792 19.6784 15.4593 19.2621 15.5057Z" fill="#666666"/>
<path d="M19.2626 15.5059C17.8441 15.6993 15.7472 15.939 13.6271 16.0009C13.6271 16.0009 14.0357 21.8555 12.6172 22.1185C12.6866 22.1185 13.6502 22.0721 14.3287 21.4224C15.0765 20.7186 19.6789 15.4595 19.2626 15.5059Z" fill="#666666"/>
<path d="M12.941 22.149C12.8408 22.1412 12.7328 22.1412 12.6172 22.1258C12.8793 22.0794 13.0566 21.9866 13.3342 21.7932C13.8969 21.3833 14.082 20.7027 14.1282 20.4166C14.3826 19.0012 14.7141 16.913 14.8837 14.7939C15.1844 11.0429 14.9917 8.56031 14.9917 8.56031L20.234 3.5564C20.234 3.5564 20.6194 6.34064 20.8353 9.50386C20.9741 11.5766 21.0126 13.3863 21.0203 14.3995C21.0203 14.4691 21.082 15.1961 20.3959 15.8535C19.6481 16.565 15.9013 20.1613 14.3903 21.5999C13.735 22.2418 13.0027 22.149 12.941 22.149Z" fill="#959595"/>
<path d="M33.2499 0.681189V4.88464H29.5645C27.3269 4.88464 25.9668 5.54487 25.1332 6.35915C23.8389 7.61358 23.8389 9.4182 23.8389 9.61627V14.1058C23.8389 14.3039 23.8389 16.1085 25.1332 17.3629C25.9668 18.1772 27.3269 18.8374 29.5645 18.8374H31.1878C32.2408 18.8374 33.6887 18.6174 34.4345 17.429C34.8514 16.7907 34.983 15.9324 34.983 15.1622V0.65918H33.228V0.681189H33.2499ZM32.7234 16.7687C32.3724 17.0988 31.8021 17.2749 30.9685 17.2749H29.389C27.9411 17.2749 27.0417 16.8568 26.4713 16.3066C25.8132 15.6683 25.5938 14.8321 25.5938 14.1718V9.57225C25.5938 8.91202 25.8132 8.07574 26.4713 7.43752C27.0198 6.88733 27.9411 6.46919 29.389 6.46919H33.228V15.0741C33.2499 15.8664 33.0525 16.4386 32.7234 16.7687ZM106.389 7.43752C106.937 6.88733 107.858 6.46919 109.306 6.46919H113.54V4.88464H109.504C107.266 4.88464 105.906 5.54487 105.072 6.35915C103.778 7.61358 103.778 9.4182 103.778 9.61627V14.1058C103.778 14.3039 103.778 16.1085 105.072 17.3629C105.906 18.1772 107.266 18.8374 109.504 18.8374H113.54V17.2529H109.306C107.858 17.2529 106.959 16.8347 106.389 16.2846C105.731 15.6463 105.511 14.8101 105.511 14.1498V9.55025C105.533 8.91203 105.752 8.07574 106.389 7.43752ZM73.3512 9.61627C73.3512 9.4182 73.3512 7.61358 72.0569 6.35915C71.2233 5.54487 69.8632 4.88464 67.6256 4.88464H63.7207V6.46919H67.823C69.2709 6.46919 70.1703 6.88733 70.7407 7.43752C71.3988 8.07574 71.6181 8.91202 71.6181 9.57225V10.9147H66.0241C64.9712 10.9147 63.5233 11.1348 62.7774 12.3232C62.3606 12.9614 62.229 13.8197 62.229 14.59V15.1402C62.229 15.9104 62.3606 16.7687 62.7774 17.4069C63.5233 18.5954 64.9712 18.8154 66.0241 18.8154H69.578C70.631 18.8154 72.0788 18.5954 72.8247 17.4069C73.2415 16.7687 73.3731 15.9104 73.3731 15.1402C73.3512 15.1842 73.3512 9.61627 73.3512 9.61627ZM71.0478 16.7687C70.6968 17.0988 70.1264 17.2749 69.2928 17.2749H66.2216C65.388 17.2749 64.8176 17.0988 64.4666 16.7687C64.1156 16.4386 63.9401 15.8884 63.9401 15.0741V14.678C63.9401 13.8637 64.1156 13.3135 64.4666 12.9834C64.8176 12.6533 65.388 12.4773 66.2216 12.4773H71.5962V15.0521C71.5743 15.8664 71.4207 16.4386 71.0478 16.7687ZM102.374 9.61627C102.374 9.4182 102.374 7.61358 101.08 6.35915C100.246 5.54487 98.8861 4.88464 96.6485 4.88464H92.7437V6.46919H96.824C98.2719 6.46919 99.1713 6.88733 99.7417 7.43752C100.4 8.07574 100.619 8.91202 100.619 9.57225V10.9147H95.0252C93.9722 10.9147 92.5243 11.1348 91.7785 12.3232C91.3616 12.9614 91.23 13.8197 91.23 14.59V15.1402C91.23 15.9104 91.3616 16.7687 91.7785 17.4069C92.5243 18.5954 93.9722 18.8154 95.0252 18.8154H98.579C99.632 18.8154 101.08 18.5954 101.826 17.4069C102.243 16.7687 102.374 15.9104 102.374 15.1402C102.374 15.1842 102.374 10.5406 102.374 9.61627ZM100.071 16.7687C99.7197 17.0988 99.1494 17.2749 98.3157 17.2749H95.2226C94.389 17.2749 93.8186 17.0988 93.4676 16.7687C93.1166 16.4386 92.9411 15.8884 92.9411 15.0741V14.678C92.9411 13.8637 93.1166 13.3135 93.4676 12.9834C93.8186 12.6533 94.389 12.4773 95.2226 12.4773H100.597V15.0521C100.597 15.8664 100.422 16.4386 100.071 16.7687ZM48.9351 4.88464H47.1143L42.661 16.4826L38.2297 4.88464H36.4089L41.7616 18.8815L40.1602 23.0849H41.9809L48.9351 4.88464ZM60.7812 9.61627C60.7812 9.4182 60.7811 7.61358 59.5088 6.35915C58.6971 5.54487 57.4028 4.90664 55.2968 4.88464H55.0994C52.9934 4.90664 51.6991 5.58888 50.8875 6.35915C49.6151 7.61358 49.6151 9.4182 49.6151 9.61627V18.8594H51.3701V9.55025C51.3701 8.89002 51.5895 8.05373 52.2256 7.41551C52.7741 6.88733 53.8051 6.46919 55.1872 6.46919C56.5692 6.49119 57.6222 6.88733 58.1487 7.41551C58.7849 8.05373 59.0042 8.89002 59.0042 9.55025V18.8594H60.7592C60.7812 18.1552 60.7812 9.85835 60.7812 9.61627ZM124.377 6.38115C123.565 5.56687 122.271 4.92865 120.165 4.90665H119.968C117.862 4.92865 116.568 5.61088 115.756 6.38115C114.483 7.63558 114.483 9.44021 114.483 9.61627V14.1058C114.483 14.3039 114.483 16.1085 115.756 17.3629C116.568 18.1772 117.862 18.8154 119.968 18.8374H124.092V17.2529H120.056C118.673 17.2309 117.621 16.8348 117.094 16.3066C116.458 15.6683 116.238 14.8321 116.238 14.1718V12.4993H125.65V9.57225C125.65 9.4402 125.65 7.63558 124.377 6.38115ZM116.238 10.9367V9.55025C116.238 8.89002 116.458 8.05373 117.094 7.41551C117.642 6.88733 118.673 6.46919 120.056 6.46919C121.438 6.49119 122.491 6.88733 123.017 7.41551C123.653 8.05373 123.873 8.89002 123.873 9.55025V10.9367H116.238Z" fill="#666666"/>
</svg>

<svg width="126" height="24" viewBox="0 0 126 24" fill="none" xmlns="http://www.w3.org/2000/svg"><path d="M90.483 6.47h-2.94c-.833 0-1.403.175-1.754.505s-.527.925-.527 1.717V18.86h-1.777V8.56c0-.77.132-1.629.549-2.267.746-1.188 2.194-1.408 3.246-1.408h3.181c.022-.044.022 1.584.022 1.584zM79.186 17.297c-.833 0-1.404-.176-1.755-.506-.35-.33-.526-.88-.526-1.695V6.491h3.685V4.907h-3.685V.703h-1.777v14.503c0 .77.132 1.629.548 2.267.746 1.189 2.194 1.409 3.247 1.409h3.181v-1.563h-2.94v-.022h.022z" fill="#666"/><path d="M7.497 3.108c-.262 1.415-.601 3.504-.779 5.623-.308 3.75-.115 6.249-.115 6.249L1.36 19.984s-.408-2.808-.616-5.97a98.755 98.755 0 01-.178-4.726c0-.062.031-.116.031-.178 0-.07.085-.774.771-1.416.748-.711 6.206-5.003 6.13-4.586z" fill="#7C7C7C"/><path d="M7.497 3.108c-.262 1.416-.601 3.504-.779 5.623 0 0-5.805-.696-6.152.711 0-.07.1-.928.78-1.577.755-.727 6.228-5.174 6.151-4.757z" fill="#666"/><path d="M.574 9.11v.324c.062-.255.154-.44.37-.703.432-.55 1.126-.696 1.411-.735 1.419-.186 3.523-.418 5.636-.48 3.746-.116 6.213.194 6.213.194l5.243-5.004s-2.753-.526-5.898-.897a83.779 83.779 0 00-4.872-.433c-.07 0-.794-.1-1.48.556-.748.712-4.503 4.285-6.014 5.731C.52 8.313.574 9.048.574 9.11z" fill="#959595"/><path d="M19.262 15.506c-1.418.193-3.515.433-5.635.495-3.747.123-6.23-.186-6.23-.186l-5.25 5.004s2.784.55 5.913.905c1.92.224 3.632.34 4.657.402.07 0 .193-.062.262-.062.07 0 .794-.124 1.48-.781.763-.704 5.22-5.824 4.803-5.777z" fill="#666"/><path d="M19.263 15.506c-1.419.193-3.516.433-5.636.495 0 0 .409 5.854-1.01 6.117.07 0 1.033-.046 1.712-.696.747-.703 5.35-5.963 4.934-5.916z" fill="#666"/><path d="M12.941 22.149c-.1-.008-.208-.008-.324-.023.262-.047.44-.14.717-.333.563-.41.748-1.09.794-1.376.255-1.416.586-3.504.756-5.623.3-3.751.108-6.234.108-6.234l5.242-5.004s.385 2.785.601 5.948c.14 2.073.178 3.882.185 4.896 0 .07.062.796-.624 1.454-.748.711-4.495 4.307-6.006 5.746-.655.642-1.387.549-1.449.549z" fill="#959595"/><path d="M33.25.681v4.204h-3.686c-2.237 0-3.597.66-4.43 1.474-1.295 1.255-1.295 3.06-1.295 3.257v4.49c0 .198 0 2.002 1.294 3.257.834.814 2.194 1.474 4.431 1.474h1.624c1.053 0 2.5-.22 3.247-1.408.416-.638.548-1.497.548-2.267V.66h-1.755v.022h.022zm-.527 16.088c-.35.33-.92.506-1.755.506H29.39c-1.448 0-2.347-.418-2.918-.968-.658-.639-.877-1.475-.877-2.135v-4.6c0-.66.22-1.496.877-2.134.549-.55 1.47-.969 2.918-.969h3.839v8.605c.022.792-.175 1.365-.505 1.695zm73.666-9.331c.548-.55 1.469-.969 2.917-.969h4.234V4.885h-4.036c-2.238 0-3.598.66-4.432 1.474-1.294 1.255-1.294 3.06-1.294 3.257v4.49c0 .198 0 2.002 1.294 3.257.834.814 2.194 1.474 4.432 1.474h4.036v-1.584h-4.234c-1.448 0-2.347-.418-2.917-.968-.658-.639-.878-1.475-.878-2.135v-4.6c.022-.638.241-1.474.878-2.112zM73.351 9.616c0-.198 0-2.002-1.294-3.257-.834-.814-2.194-1.474-4.431-1.474H63.72v1.584h4.102c1.448 0 2.347.418 2.918.969.658.638.877 1.474.877 2.134v1.343h-5.594c-1.053 0-2.5.22-3.247 1.408-.416.638-.548 1.497-.548 2.267v.55c0 .77.132 1.629.548 2.267.746 1.188 2.194 1.408 3.247 1.408h3.554c1.053 0 2.5-.22 3.247-1.408.416-.638.548-1.497.548-2.267-.022.044-.022-5.524-.022-5.524zm-2.303 7.153c-.351.33-.922.506-1.755.506h-3.071c-.834 0-1.404-.176-1.755-.506s-.527-.88-.527-1.695v-.396c0-.814.176-1.365.527-1.695.35-.33.921-.506 1.755-.506h5.374v2.575c-.022.814-.175 1.387-.548 1.717zm31.326-7.153c0-.198 0-2.002-1.294-3.257-.834-.814-2.194-1.474-4.431-1.474h-3.905v1.584h4.08c1.448 0 2.347.418 2.918.969.658.638.877 1.474.877 2.134v1.343h-5.594c-1.053 0-2.5.22-3.247 1.408-.416.638-.548 1.497-.548 2.267v.55c0 .77.132 1.629.548 2.267.746 1.188 2.194 1.408 3.247 1.408h3.554c1.053 0 2.501-.22 3.247-1.408.417-.638.548-1.497.548-2.267V9.616zm-2.303 7.153c-.351.33-.922.506-1.755.506h-3.093c-.834 0-1.404-.176-1.755-.506s-.527-.88-.527-1.695v-.396c0-.814.176-1.365.527-1.695.35-.33.921-.506 1.755-.506h5.374v2.575c0 .814-.175 1.387-.526 1.717zM48.935 4.885h-1.82L42.66 16.483 38.23 4.885h-1.821l5.353 13.996-1.602 4.204h1.82l6.955-18.2zm11.846 4.731c0-.198 0-2.002-1.272-3.257-.812-.814-2.106-1.452-4.212-1.474h-.198c-2.106.022-3.4.704-4.211 1.474-1.273 1.255-1.273 3.06-1.273 3.257v9.243h1.755V9.55c0-.66.22-1.496.856-2.134.548-.529 1.58-.947 2.961-.947 1.382.022 2.435.418 2.962.947.636.638.855 1.474.855 2.134v9.31h1.755c.022-.705.022-9.002.022-9.244zm63.596-3.235c-.812-.814-2.106-1.452-4.212-1.474h-.197c-2.106.022-3.4.704-4.212 1.474-1.273 1.255-1.273 3.06-1.273 3.235v4.49c0 .198 0 2.002 1.273 3.257.812.814 2.106 1.452 4.212 1.474h4.124v-1.584h-4.036c-1.383-.022-2.435-.418-2.962-.946-.636-.639-.856-1.475-.856-2.135v-1.673h9.412V9.572c0-.132 0-1.936-1.273-3.19zm-8.139 4.556V9.55c0-.66.22-1.496.856-2.134.548-.529 1.579-.947 2.962-.947 1.382.022 2.435.418 2.961.947.636.638.856 1.474.856 2.134v1.387h-7.635z" fill="#666"/></svg>
